X: 108
T:Jimmy O'Brien's Reel (#304)
M:4/4
L:1/8
S:Capt. F. O'Neill
R:Reel
K:G
AB|:cAAB cAAG|F2 G2 A2 AB|cAAB cAAG|F2 GE FD D2:||
fefg a2 "tr"ag|FA ~A2 FA ~A2| fefg a2 "tr"ag|BABc d2-d2|
fefg a2 "tr"ag|FA ~A2 FA ~A2|fde^c dfec|d2- dc d2 z2|| 

